icons/desktop/16/svg/sidebar-expanded-16.svg

<svg width="16" height="16" viewBox="0 0 16 16" fill="none" xmlns="http://www.w3.org/2000/svg">
<path fill-rule="evenodd" clip-rule="evenodd" d="M8 2C9.4553 2 11.0559 2.05884 12.7773 2.21289L13.5225 2.28516L13.7812 2.32422C15.0525 2.57884 16 3.69884 16 5.02539V10.9746C16 12.3741 14.9513 13.5653 13.5459 13.7119C11.8584 13.8874 10.0011 14 8 14C6.33683 14 4.48373 13.9228 2.47754 13.7148C1.07827 13.5696 0 12.3897 0 10.9746V5.02539C0 3.62588 1.04865 2.43465 2.4541 2.28809C4.14156 2.11265 5.99888 2 8 2ZM8 3.5C7.31567 3.5 6.64865 3.51402 6 3.53906V12.4609C6.69396 12.4876 7.36134 12.5 8 12.5C9.94487 12.5 11.7501 12.3903 13.3906 12.2197C14.0189 12.154 14.5 11.6189 14.5 10.9746V5.02539C14.5 4.38652 14.0099 3.84407 13.3672 3.77734C11.4176 3.5753 9.6167 3.5 8 3.5Z" fill="black"/>
</svg>

<!-- This Source Code Form is subject to the terms of the Mozilla Public
   - License, v. 2.0. If a copy of the MPL was not distributed with this
   - file, You can obtain one at http://mozilla.org/MPL/2.0/. -->
<svg xmlns="http://www.w3.org/2000/svg" width="16" height="16" fill="context-fill" fill-opacity="context-fill-opacity" viewBox="0 0 16 16">
    <path fill-rule="evenodd" d="M8 2c1.455 0 3.056.059 4.777.213l.746.072.258.04A2.76 2.76 0 0 1 16 5.024v5.95c0 1.4-1.049 2.59-2.454 2.737a53.6 53.6 0 0 1-11.068.003A2.76 2.76 0 0 1 0 10.975v-5.95c0-1.4 1.049-2.59 2.454-2.737A54 54 0 0 1 8 2m0 1.5q-1.026 0-2 .04v8.92a52 52 0 0 0 7.39-.24c.629-.066 1.11-.601 1.11-1.245v-5.95c0-.638-.49-1.18-1.133-1.248A52 52 0 0 0 8 3.5" clip-rule="evenodd" />
</svg>
